!!!COM: Music21
!!!OTL: Foliada de Cambados
!!!OMV: pezas_foliadas_foliada-de-cambados_foliada-de-cambados-partitura.musicxml
**kern
*I"Gaita
*I'Bag
*clefG^2
*k[]
*M3/8
*MM105
=1
!LO:TX:a:t=[quarter-dot]=70
8ffL
16ffL
16ggJ
[8aaJ
=
8aaL]
8.bb
16bbJk
=
8.bbL
16aaK
[8ggJ
=
4.gg]
=
8eeL
16eeL
16ffJ
[8ggJ
=
8ggL]
8.aa
16aaJk
=
8aaL
16ggL
16aaJ
[8bbJ
=
4.bb]
=
8ffL
16ffL
16ggJ
[8aaJ
=
8aaL]
8.bb
16bbJk
=
8.bbL
16aaK
[8ggJ
!!linebreak:original
=
4.gg]
=||
8eeL
16eeL
16ffJ
[8ggJ
=
8ggL]
8.aa
16aaJk
=
8aaL
16ggL
16aaJ
[8bbJ
=
8bb]
4ccc
=
4aa
[8gg
=
8ggL]
16aaL
16bb
16aa
16ggJJ
=
4ff
[8ee
=
4.ee]
=||
8eeL
16eeL
16ffJ
[8ggJ
=
8ggL]
8.aa
16aaJk
=
8aaL
16ggL
16aaJ
[8bbJ
!!linebreak:original
=
8bb]
4ccc
=
4aa
[8gg
=
8ggL]
16aaL
16bb
16aa
16ggJJ
=
4ff
[8ee
=
8ee]
4gg
=||
8.aaL
16ggK
8eeJ
!!linebreak:original
=
8aaL
8aa
8aaJ
=
8.aaL
16ggK
[8ffJ
=
8ff]
4ff
=
8.ggL
16ffK
8ddJ
=
8ggL
8gg
8ggJ
=
8.ggL
16ffK
[8eeJ
=
8ee]
4gg
=
8.aaL
16ggK
8eeJ
=
8aaL
8aa
8ggJ
=
8ff
4r
=
8ffL
8gg
8aaJ
=
8.bbL
16aaK
8ggJ
!!linebreak:original
=
8aaL
8gg
8ffJ
=
[4.ee
=
8ee]
4r
==
*-
